src/4-icons/password.svg

<svg width="260" height="260" viewBox="0 0 260 260" fill="none" xmlns="http://www.w3.org/2000/svg">
<g opacity="0.9">
<path d="M161.46 99.0338C159.718 97.4738 157.457 96.4856 154.908 96.4856H148.357V103.037H154.908C156.677 103.037 158.185 104.546 158.185 106.313V152.151C158.185 153.919 156.677 155.427 154.908 155.427H148.357V161.979H154.908C157.43 161.979 159.718 160.991 161.46 159.431C163.202 160.991 165.49 161.979 168.012 161.979H174.564V155.427H168.012C166.244 155.427 164.736 153.919 164.736 152.151V106.286C164.736 104.518 166.217 103.011 168.012 103.011H174.564V96.4592H168.012C165.49 96.4846 163.202 97.4485 161.46 99.0338Z" fill="black"/>
<path d="M71.448 124.827L80.3398 121.759L81.9791 126.257L73.0608 129.169L78.5726 136.865L74.5427 139.75L69.2127 131.742L63.8044 139.75L59.6444 136.865L65.2344 129.169L56.2644 126.257L57.8762 121.733L66.7162 124.905V115.753H71.448V124.827Z" fill="black"/>
<path d="M112.892 121.759L103.973 124.827V115.753H99.2415V124.905L90.4279 121.733L88.7897 126.257L97.7597 129.169L92.1697 136.865L96.3297 139.75L101.738 131.742L107.068 139.75L111.123 136.865L105.612 129.169L114.503 126.257L112.892 121.759Z" fill="black"/>
<path d="M136.5 124.827L145.418 121.759L147.031 126.257L138.139 129.169L143.651 136.865L139.621 139.75L134.291 131.742L128.883 139.75L124.723 136.865L130.313 129.169L121.317 126.257L122.955 121.733L131.768 124.905V115.753H136.5V124.827Z" fill="black"/>
<path fill-rule="evenodd" clip-rule="evenodd" d="M47.918 75.4004C40.7416 75.4258 34.9434 81.224 34.918 88.4004V171.6C34.9444 178.776 40.7416 184.574 47.918 184.6H212.056C219.233 184.575 225.03 178.777 225.056 171.6V88.4004C225.056 81.224 219.258 75.4258 212.083 75.4004H47.918ZM213.902 173.42C213.407 173.915 212.783 174.175 212.056 174.2H47.918C47.2162 174.2 46.5916 173.915 46.0716 173.42C45.578 172.926 45.318 172.302 45.318 171.6V88.4004C45.318 87.6986 45.6044 87.075 46.0716 86.5804C46.5652 86.0858 47.1898 85.8258 47.918 85.8004H212.056C212.758 85.8004 213.382 86.0858 213.902 86.5804C214.396 87.075 214.656 87.6986 214.656 88.4004V171.6C214.682 172.302 214.396 172.926 213.902 173.42Z" fill="black"/>
</g>
</svg>

<svg width="260" height="260" fill="none" xmlns="http://www.w3.org/2000/svg"><g opacity=".9" fill="#000"><path d="M161.46 99.034c-1.742-1.56-4.003-2.548-6.552-2.548h-6.551v6.551h6.551c1.769 0 3.277 1.509 3.277 3.276v45.838c0 1.768-1.508 3.276-3.277 3.276h-6.551v6.552h6.551c2.522 0 4.81-.988 6.552-2.548 1.742 1.56 4.03 2.548 6.552 2.548h6.552v-6.552h-6.552c-1.768 0-3.276-1.508-3.276-3.276v-45.865c0-1.768 1.481-3.275 3.276-3.275h6.552v-6.552h-6.552a9.833 9.833 0 0 0-6.552 2.575Zm-90.012 25.793 8.892-3.068 1.64 4.498-8.92 2.912 5.513 7.696-4.03 2.885-5.33-8.008-5.409 8.008-4.16-2.885 5.59-7.696-8.97-2.912 1.612-4.524 8.84 3.172v-9.152h4.732v9.074Zm41.444-3.068-8.919 3.068v-9.074h-4.731v9.152l-8.814-3.172-1.638 4.524 8.97 2.912-5.59 7.696 4.16 2.885 5.408-8.008 5.33 8.008 4.055-2.885-5.511-7.696 8.891-2.912-1.611-4.498Zm23.608 3.068 8.918-3.068 1.613 4.498-8.892 2.912 5.512 7.696-4.03 2.885-5.33-8.008-5.408 8.008-4.16-2.885 5.59-7.696-8.996-2.912 1.638-4.524 8.813 3.172v-9.152h4.732v9.074Z"/><path fill-rule="evenodd" clip-rule="evenodd" d="M47.918 75.4c-7.176.026-12.975 5.824-13 13v83.2c.026 7.176 5.824 12.974 13 13h164.138c7.177-.025 12.974-5.823 13-13V88.4c0-7.176-5.798-12.974-12.973-13H47.918Zm165.984 98.02c-.495.495-1.119.755-1.846.78H47.918c-.702 0-1.326-.285-1.846-.78a2.515 2.515 0 0 1-.754-1.82V88.4c0-.701.286-1.325.754-1.82.493-.494 1.118-.754 1.846-.78h164.138c.702 0 1.326.286 1.846.78.494.495.754 1.119.754 1.82v83.2c.026.702-.26 1.326-.754 1.82Z"/></g></svg>
